modules/linea-basic/icons/basic-keyboard.svg

<svg xmlns="http://www.w3.org/2000/svg" width="64" height="64" viewBox="0 0 64 64"><path fill="none" stroke="#000" stroke-width="2" stroke-miterlimit="10" d="M1 22h62v30H1zm6 0v-8h14V7H11V4M4 29h4m2 0h4m2 0h4m2 0h4m2 0h4m2 0h4m2 0h4m2 0h4m2 0h4M4 45h4m2 0h4m2 0h26m8 0h4m2 0h4m-16 0h4M8 37h4m2 0h4m2 0h4m2 0h4m2 0h4m2 0h4m2 0h4m2 0h4m2 0h4"/></svg>

<svg xmlns="http://www.w3.org/2000/svg" width="64" height="64" viewBox="0 0 64 64"><path fill="none" stroke="#000" stroke-width="2" stroke-miterlimit="10" d="M1 22h62v30H1zM7 22v-8h14V7H11V4M4 29h4M10 29h4M16 29h4M22 29h4M28 29h4M34 29h4M40 29h4M46 29h4M52 29h4M4 45h4M10 45h4M16 45h26M50 45h4M56 45h4M44 45h4M8 37h4M14 37h4M20 37h4M26 37h4M32 37h4M38 37h4M44 37h4M50 37h4M56 37h4"/></svg>
